public/images/frog/sheet/frog-sheet-error.svg

<svg width="191" height="70" viewBox="0 0 191 70" fill="none" xmlns="http://www.w3.org/2000/svg">
<path d="M34.0381 52.0259C34.0413 51.6508 34.0846 56.5005 34.0846 50.9054C34.9654 44.8144 38.0515 39.523 42.6425 34.8093C47.5744 29.741 53.6993 25.9272 60.6507 23.0029C61.0957 22.8169 61.4145 22.5725 61.6394 22.2038C62.6727 20.5224 63.7007 18.8366 64.7708 17.1687C66.8683 13.8901 68.8291 10.5397 71.6415 7.62018C74.0012 5.16898 76.6227 2.9671 80.0451 1.55749C82.8795 0.390012 85.8081 -0.0573744 88.8177 1.12426C91.3486 2.12091 92.8909 3.88585 93.9659 5.96898C95.1397 8.23828 95.6102 10.634 95.7529 13.0843C95.7621 13.2521 95.6595 13.5204 95.9813 13.5408C96.319 13.5613 96.2211 13.2869 96.2436 13.1194C96.2773 12.8902 96.2739 12.6607 96.3022 12.4359C96.6278 9.54824 97.3328 6.74324 99.2913 4.28422C101.335 1.71119 104.156 0.340614 107.948 0.694849C110.232 0.908345 112.253 1.71975 114.107 2.81658C118.314 5.30572 121.337 8.64533 123.813 12.3598C126.07 15.7459 128.057 19.2533 130.16 22.7042C130.379 23.0635 130.619 23.3612 131.082 23.5593C133.728 24.6937 136.251 25.9992 138.646 27.4713C145.1 31.4269 150.413 36.2156 153.919 42.2908C155.646 45.2885 156.771 48.365 157.235 51.5196C157.267 52.0362 153.021 58 152.5 58C144.5 58 127.282 58 93.9659 58C60.6503 58 44.5 58.0005 37.5 58L34.0381 52.0259Z" fill="#FF6464"/>
<path d="M85.6281 12.9952C90.2436 15.6823 91.6259 20.585 89.2136 25.1238C87.6438 28.0687 84.6218 29.7768 81.5848 29.4318C78.7319 29.0963 76.415 26.7571 75.5441 23.4361C73.856 16.9419 80.6615 10.7457 85.6281 12.9952Z" fill="#0E0E0E"/>
<path d="M107.271 12.2201C112.589 12.745 115.879 16.6076 115.559 21.7074C115.348 25.0182 113.302 27.8101 110.391 28.7515C107.653 29.6257 104.573 28.4667 102.405 25.8232C98.178 20.6476 101.814 12.236 107.271 12.2201Z" fill="#0E0E0E"/>
<path d="M83.8218 20.4772C83.1564 19.0682 83.3628 17.9578 84.4991 17.0948C85.2496 16.5373 86.0831 16.5084 86.9095 16.9675C87.9514 17.5462 88.4406 18.4398 88.4352 19.5968C88.4293 20.4103 88.1332 21.1181 87.3389 21.4564C86.0343 22.0032 84.9342 21.4756 83.8403 20.4782L83.8218 20.4772Z" fill="white"/>
<path d="M108.486 20.2103C107.143 19.0753 106.834 17.8413 107.594 16.4287C108.102 15.5085 108.943 15.0915 110.005 15.178C111.344 15.287 112.264 15.9755 112.801 17.164C113.177 18.0004 113.205 18.8636 112.549 19.5795C111.469 20.7462 110.094 20.7167 108.505 20.2027L108.486 20.2103Z" fill="white"/>
<path d="M96.1199 38.2414C97.9252 37.283 99.8054 36.6935 101.812 36.6786C103.528 36.6629 105.077 37.194 106.199 38.5782C106.484 38.9325 106.647 39.3397 106.287 39.7457C105.957 40.1181 105.504 40.0955 105.239 39.6577C104.493 38.4154 103.247 38.128 101.959 38.0748C100.246 38.0055 98.5344 38.362 97.0525 39.1446C95.941 39.7327 95.0664 39.6361 93.9772 39.2671C92.4318 38.7452 90.8188 38.6123 89.2182 39.1748C88.5817 39.3974 88.0541 39.7945 87.4939 40.1442C87.1492 40.3587 86.7299 40.6524 86.4216 40.3007C86.088 39.9247 86.4484 39.5143 86.7401 39.2239C87.9862 37.979 89.5377 37.4618 91.2862 37.4935C92.5942 37.5171 93.8476 37.823 95.0369 38.3613C95.4273 38.5402 95.7617 38.5669 96.1199 38.2414Z" fill="#0C200F"/>
<path d="M82.9421 38.5C82.9421 40.7091 81.1435 42.5 78.9247 42.5C76.7059 42.5 74.9072 40.7091 74.9072 38.5C74.9072 36.2909 78.9247 30 78.9247 30C78.9247 30 82.9421 36.2909 82.9421 38.5Z" fill="white"/>
<path d="M152.173 54.4961C152.104 62.4272 155.732 68.8908 160.271 68.9285C162.175 68.9443 163.938 67.8302 165.344 65.9438C165.596 65.6118 166.121 65.6162 166.361 65.9523C167.741 67.8619 169.484 69.0051 171.383 69.0209C173.281 69.0367 175.049 67.9226 176.456 66.0362C176.708 65.7042 177.233 65.7086 177.473 66.0446C178.853 67.9542 180.595 69.0975 182.494 69.1133C187.039 69.1511 190.773 62.7487 190.842 54.8176C190.847 54.2407 190.825 53.6736 190.792 53.1165L190.781 53.1164C190.622 44.0395 182.138 36.67 171.621 36.5826C161.104 36.4951 152.243 43.9229 152.162 53.18C152.161 53.3673 152.17 53.5445 152.174 53.7268C152.161 53.9848 152.153 54.2378 152.151 54.501L152.173 54.4961Z" fill="#FF6464"/>
<path d="M0.146285 54.7364C0.0773606 62.6674 3.70555 69.131 8.2444 69.1687C10.1487 69.1846 11.9113 68.0705 13.3181 66.184C13.5698 65.8521 14.0946 65.8564 14.3351 66.1925C15.7144 68.1021 17.4573 69.2453 19.3562 69.2611C21.255 69.2769 23.023 68.1629 24.4299 66.2764C24.6816 65.9444 25.2064 65.9488 25.4469 66.2849C26.8262 68.1945 28.5691 69.3377 30.468 69.3535C35.0122 69.3913 38.7468 62.9889 38.8157 55.0579C38.8208 54.4809 38.7986 53.9138 38.7656 53.3567L38.7548 53.3566C38.5956 44.2797 30.1115 36.9103 19.5948 36.8228C9.0781 36.7354 0.216534 44.1631 0.136085 53.4202C0.134458 53.6075 0.14374 53.7848 0.147566 53.967C0.134504 54.225 0.126892 54.4781 0.124605 54.7412L0.146285 54.7364Z" fill="#FF6464"/>
</svg>

<svg width="191" height="70" fill="none" xmlns="http://www.w3.org/2000/svg"><path d="M34.038 52.026c.003-.375.047 4.474.047-1.12.88-6.092 3.966-11.383 8.557-16.097 4.932-5.068 11.057-8.882 18.009-11.806.445-.186.763-.43.988-.8 1.034-1.68 2.062-3.366 3.132-5.034 2.097-3.279 4.058-6.63 6.87-9.549 2.36-2.451 4.982-4.653 8.404-6.063C82.88.39 85.808-.057 88.818 1.124c2.53.997 4.073 2.762 5.148 4.845 1.174 2.27 1.644 4.665 1.787 7.115.01.168-.094.436.228.457.338.02.24-.254.263-.422.033-.229.03-.458.058-.683.326-2.888 1.03-5.693 2.99-8.152 2.043-2.573 4.864-3.943 8.656-3.59 2.284.214 4.305 1.026 6.159 2.123 4.207 2.489 7.23 5.828 9.706 9.543 2.257 3.386 4.244 6.893 6.347 10.344.219.36.459.657.922.855a58.286 58.286 0 0 1 7.564 3.912c6.454 3.956 11.767 8.745 15.273 14.82 1.727 2.998 2.852 6.074 3.316 9.229.032.516-4.214 6.48-4.735 6.48h-115l-3.462-5.974Z" fill="#FF6464"/><path d="M85.628 12.995c4.616 2.687 5.998 7.59 3.586 12.129-1.57 2.945-4.592 4.653-7.63 4.308-2.852-.336-5.169-2.675-6.04-5.996-1.688-6.494 5.118-12.69 10.084-10.44ZM107.271 12.22c5.318.525 8.608 4.388 8.288 9.487-.211 3.311-2.257 6.103-5.168 7.044-2.738.875-5.818-.284-7.986-2.928-4.227-5.175-.591-13.587 4.866-13.603Z" fill="#0E0E0E"/><path d="M83.822 20.477c-.666-1.409-.46-2.52.677-3.382.75-.558 1.584-.587 2.41-.127 1.042.578 1.532 1.472 1.526 2.629-.006.813-.302 1.521-1.096 1.86-1.305.546-2.405.019-3.499-.979h-.018ZM108.486 20.21c-1.343-1.135-1.652-2.369-.892-3.781.508-.92 1.349-1.337 2.411-1.251 1.339.109 2.259.797 2.796 1.986.376.836.404 1.7-.252 2.415-1.08 1.167-2.455 1.138-4.044.624l-.019.007Z" fill="#fff"/><path d="M96.12 38.241c1.805-.958 3.685-1.547 5.692-1.562 1.716-.016 3.265.515 4.387 1.9.285.353.448.76.088 1.167-.33.372-.783.35-1.048-.088-.746-1.243-1.992-1.53-3.28-1.583-1.713-.07-3.425.287-4.907 1.07-1.111.588-1.986.491-3.075.122-1.545-.522-3.158-.655-4.759-.092-.636.222-1.164.62-1.724.97-.345.214-.764.507-1.072.156-.334-.376.026-.787.318-1.077 1.246-1.245 2.798-1.762 4.546-1.73a9.452 9.452 0 0 1 3.75.867c.391.18.726.206 1.084-.12Z" fill="#0C200F"/><path d="M82.942 38.5c0 2.21-1.798 4-4.017 4a4.009 4.009 0 0 1-4.018-4c0-2.21 4.018-8.5 4.018-8.5s4.017 6.29 4.017 8.5Z" fill="#fff"/><path d="M152.173 54.496c-.069 7.931 3.559 14.395 8.098 14.432 1.904.016 3.667-1.098 5.073-2.984.252-.332.777-.328 1.017.008 1.38 1.91 3.123 3.053 5.022 3.069 1.898.016 3.666-1.098 5.073-2.985.252-.332.777-.327 1.017.009 1.38 1.91 3.122 3.052 5.021 3.068 4.545.038 8.279-6.364 8.348-14.295a25.039 25.039 0 0 0-.05-1.701h-.011c-.159-9.078-8.643-16.447-19.16-16.534-10.517-.088-19.378 7.34-19.459 16.597-.001.187.008.364.012.547-.013.258-.021.51-.023.774l.022-.005ZM.146 54.736c-.069 7.931 3.56 14.395 8.098 14.433 1.905.016 3.667-1.099 5.074-2.985a.641.641 0 0 1 1.017.008c1.38 1.91 3.122 3.053 5.021 3.07 1.899.015 3.667-1.1 5.074-2.986a.641.641 0 0 1 1.017.009c1.38 1.91 3.122 3.053 5.021 3.069 4.544.037 8.279-6.365 8.348-14.296a24.974 24.974 0 0 0-.05-1.701h-.011c-.16-9.077-8.644-16.447-19.16-16.534C9.078 36.735.217 44.163.136 53.42c-.002.188.008.365.012.547-.013.258-.021.511-.023.774l.021-.005Z" fill="#FF6464"/></svg>
